X:2055
T:Fox on the Town, The
T:Richard Dwyer's
O:england
M:4/4
L:1/8
R:Reel
K:G
Bd|gedB edBA|G2 BG DGBd|gedB ~e3 f|g2 fg efga|be{a}ed edBA|~G3B dGBd|
efg b|adfa|gbafg2:| ga|bee2 bege|dBB2 dega|bee2 bege|degb ~a3f| g2 ge
dedB|GBdg edBd|efgb ad fa|gbaf g2:|


